symbols/web/smartphone/materialsymbolsoutlined/smartphone_wght200gradN25fill1_24px.svg

<svg xmlns="http://www.w3.org/2000/svg" height="24" width="24"><path d="M7.05 18.475h9.9V5.525h-9.9Zm.6 3.375q-.625 0-1.075-.45-.45-.45-.45-1.1V3.7q0-.65.45-1.1.45-.45 1.075-.45h8.7q.625 0 1.075.45.45.45.45 1.1v16.6q0 .65-.45 1.1-.45.45-1.075.45Z"/></svg>

<svg xmlns="http://www.w3.org/2000/svg" height="24" width="24"><path d="M7.05 18.475H16.95V5.525H7.05ZM7.65 21.85Q7.025 21.85 6.575 21.4Q6.125 20.95 6.125 20.3V3.7Q6.125 3.05 6.575 2.6Q7.025 2.15 7.65 2.15H16.35Q16.975 2.15 17.425 2.6Q17.875 3.05 17.875 3.7V20.3Q17.875 20.95 17.425 21.4Q16.975 21.85 16.35 21.85Z"/></svg>
